img/note-icon.svg

<svg width="21" height="22" viewBox="0 0 21 22" fill="none" xmlns="http://www.w3.org/2000/svg">
<path d="M20.4589 6.60919C19.7393 5.88948 18.5682 5.88952 17.8483 6.60935C17.6269 6.83098 16.2132 8.24583 15.9972 8.462V3.58609C15.9972 3.09304 15.8052 2.62953 15.4566 2.28092L13.7163 0.540624C13.3677 0.191967 12.9042 0 12.4111 0H1.84583C0.828041 0 0 0.828041 0 1.84583V19.1556C0 20.1734 0.828041 21.0015 1.84583 21.0015H14.1514C15.1692 21.0015 15.9972 20.1734 15.9972 19.1556V13.6851L20.4589 9.21961C21.1803 8.49826 21.1804 7.33062 20.4589 6.60919ZM12.3056 1.23056C12.4218 1.23056 12.6458 1.21042 12.8462 1.41075L14.5865 3.15104C14.7817 3.34633 14.7667 3.56033 14.7667 3.69167H12.3056V1.23056ZM14.7667 19.1556C14.7667 19.4949 14.4907 19.7709 14.1514 19.7709H1.84583C1.50657 19.7709 1.23056 19.4949 1.23056 19.1556V1.84583C1.23056 1.50657 1.50657 1.23056 1.84583 1.23056H11.075V4.30694C11.075 4.64674 11.3505 4.92222 11.6903 4.92222H14.7667V9.69362C14.7667 9.69362 12.9514 11.5104 12.9514 11.5105L12.0816 12.3802C12.0141 12.4477 11.9632 12.5301 11.933 12.6207L11.0628 15.2311C10.9891 15.4522 11.0467 15.696 11.2115 15.8608C11.3765 16.0258 11.6203 16.083 11.8411 16.0094L14.4515 15.1393C14.5421 15.1091 14.6245 15.0582 14.692 14.9906L14.7667 14.916V19.1556ZM13.3868 12.8153L14.2569 13.6854L13.9246 14.0178L12.6194 14.4528L13.0544 13.1476L13.3868 12.8153ZM15.1269 12.8151L14.2568 11.945C14.7201 11.4812 16.778 9.42163 17.2144 8.98482L18.0845 9.85495L15.1269 12.8151ZM19.5886 8.34965L18.9543 8.98445L18.0842 8.11432L18.7187 7.47932C18.9587 7.2394 19.349 7.23944 19.5888 7.47932C19.8287 7.71927 19.83 8.10825 19.5886 8.34965Z" fill="white"/>
<path d="M11.6902 6.15283H3.07634C2.73654 6.15283 2.46106 6.42831 2.46106 6.76811C2.46106 7.10791 2.73654 7.38339 3.07634 7.38339H11.6902C12.03 7.38339 12.3055 7.10791 12.3055 6.76811C12.3055 6.42831 12.03 6.15283 11.6902 6.15283Z" fill="white"/>
<path d="M9.22912 8.61389H3.07634C2.73654 8.61389 2.46106 8.88937 2.46106 9.22917C2.46106 9.56897 2.73654 9.84445 3.07634 9.84445H9.22912C9.56891 9.84445 9.84439 9.56897 9.84439 9.22917C9.84439 8.88937 9.56891 8.61389 9.22912 8.61389Z" fill="white"/>
<path d="M9.22912 11.075H3.07634C2.73654 11.075 2.46106 11.3504 2.46106 11.6902C2.46106 12.03 2.73654 12.3055 3.07634 12.3055H9.22912C9.56891 12.3055 9.84439 12.03 9.84439 11.6902C9.84439 11.3504 9.56891 11.075 9.22912 11.075Z" fill="white"/>
<path d="M9.22912 13.5361H3.07634C2.73654 13.5361 2.46106 13.8116 2.46106 14.1514C2.46106 14.4912 2.73654 14.7667 3.07634 14.7667H9.22912C9.56891 14.7667 9.84439 14.4912 9.84439 14.1514C9.84439 13.8116 9.56891 13.5361 9.22912 13.5361Z" fill="white"/>
<path d="M11.6902 17.3098H7.99858C7.65878 17.3098 7.3833 17.5853 7.3833 17.9251C7.3833 18.2649 7.65878 18.5404 7.99858 18.5404H11.6902C12.03 18.5404 12.3055 18.2649 12.3055 17.9251C12.3055 17.5853 12.03 17.3098 11.6902 17.3098Z" fill="white"/>
</svg>

<svg width="21" height="22" fill="none" xmlns="http://www.w3.org/2000/svg"><path d="M20.459 6.61c-.72-.72-1.89-.72-2.61 0l-1.852 1.852V3.586c0-.493-.192-.956-.54-1.305L13.717.54A1.833 1.833 0 0012.41 0H1.846A1.848 1.848 0 000 1.846v17.31c0 1.017.828 1.846 1.846 1.846H14.15a1.848 1.848 0 001.846-1.846v-5.47L20.46 9.22a1.845 1.845 0 000-2.61zm-8.153-5.38c.116 0 .34-.02.54.18l1.74 1.741c.196.195.18.41.18.54h-2.46v-2.46zm2.46 17.926c0 .339-.275.615-.615.615H1.846a.616.616 0 01-.615-.615V1.846c0-.34.276-.615.615-.615h9.229v3.076c0 .34.276.615.615.615h3.077v4.772L12.95 11.51l-.87.87a.615.615 0 00-.148.24l-.87 2.611a.615.615 0 00.778.778l2.61-.87a.615.615 0 00.241-.148l.075-.075v4.24zm-1.38-6.34l.87.87-.331.332-1.306.435.435-1.305.333-.333zm1.74 0l-.87-.871 2.958-2.96.87.87-2.957 2.96zM19.59 8.35l-.635.634-.87-.87.635-.635a.616.616 0 01.87.87z" fill="#fff"/><path d="M11.69 6.153H3.076a.615.615 0 000 1.23h8.614a.615.615 0 000-1.23zM9.23 8.614H3.075a.615.615 0 000 1.23H9.23a.615.615 0 000-1.23zM9.23 11.075H3.075a.615.615 0 100 1.23H9.23a.615.615 0 000-1.23zM9.23 13.536H3.075a.615.615 0 000 1.23H9.23a.615.615 0 000-1.23zM11.69 17.31H8a.615.615 0 000 1.23h3.691a.615.615 0 000-1.23z" fill="#fff"/></svg>
